packages/ui-icons/src/Basic/32/TV_32.svg

<svg xmlns="http://www.w3.org/2000/svg" viewBox="0 0 40 40"><path d="M32 8h-7.3l1.7-3-1.72-1-2.24 4h-4.88l-2.24-4-1.75 1 1.7 3H8a4 4 0 0 0-4 4v16.16a4 4 0 0 0 4 4h24a4 4 0 0 0 4-4V12a4 4 0 0 0-4-4Zm2 20.14a2 2 0 0 1-2 2H8a2 2 0 0 1-2-2V12a2 2 0 0 1 2-2h24a2 2 0 0 1 2 2ZM14 14.53v11.05l1.16 1.12L27 21.47v-2.82l-11.84-5.23ZM16 16l9 4v.22l-9 4Z"/></svg>

<svg id="Ready" xmlns="http://www.w3.org/2000/svg" viewBox="0 0 40 40"><title>Megaicons_work_32_1.8_cp</title><path d="M32,8h-7.3l1.7-3L24.68,4,22.44,8H17.56L15.32,4,13.57,5l1.7,3H8a4,4,0,0,0-4,4V28.16a4,4,0,0,0,4,4H32a4,4,0,0,0,4-4V12A4,4,0,0,0,32,8Zm2,20.14a2,2,0,0,1-2,2H8a2,2,0,0,1-2-2V12a2,2,0,0,1,2-2H32a2,2,0,0,1,2,2ZM14,14.53V25.58l1.16,1.12L27,21.47V18.65L15.16,13.42ZM16,16l9,4v.22l-9,4Z"/></svg>
